public/icon/Z_ALL/115.svg

<?xml version="1.0" encoding="UTF-8"?>
<svg width="1024px" height="1024px" viewBox="0 0 1024 1024" version="1.1" xmlns="http://www.w3.org/2000/svg" xmlns:xlink="http://www.w3.org/1999/xlink">
    <title>115</title>
    <g id="ICON-新版方图标" stroke="none" stroke-width="1" fill="none" fill-rule="evenodd">
        <g id="115">
            <rect id="蒙版路径" fill="#224888" fill-rule="nonzero" x="0" y="0" width="1024" height="1024"></rect>
            <path d="M735.997156,180.145778 C735.209244,180.145778 734.466844,180.274062 733.7472,180.466631 C733.220978,180.658916 732.6976,180.872818 732.151467,181.065387 C716.640711,186.83904 694.161067,193.083164 669.257956,193.083164 C669.257956,193.083164 473.258667,193.083164 430.876444,193.083164 C415.630222,193.083164 402.215822,200.353564 394.242844,211.409067 C394.177422,211.537351 279.704747,434.850133 279.704747,434.850133 C279.704747,434.850133 338.9952,441.605689 340.610844,441.841778 C393.412267,449.797689 456.064,464.893156 499.538489,490.5984 C562.016711,527.547733 601.053867,581.242311 597.100089,638.893511 C589.434311,750.626133 482.281244,800.898844 398.020267,812.9792 C338.864356,821.020444 299.585422,812.9792 299.585422,812.9792 C299.585422,812.9792 347.864178,841.571556 417.442133,843.665067 C536.240356,847.2576 628.625067,797.647644 677.492622,725.927822 C754.653867,612.764444 711.529244,432.645689 509.2608,379.016533 C470.462578,368.731022 416.5888,359.000178 416.5888,359.000178 L445.405867,303.488 C451.805867,287.792356 467.882667,276.672569 486.735644,276.672569 C487.611733,276.672569 488.484978,276.71552 489.358222,276.758187 L585.5232,276.758187 C585.545956,276.758187 585.588622,276.758187 585.611378,276.758187 C585.631289,276.758187 585.6768,276.758187 585.742222,276.758187 L671.1808,276.758187 C687.914667,276.758187 702.464,267.969422 709.998933,255.010702 L710.806756,253.471289 L742.616178,192.676693 C743.227733,191.92832 743.662933,191.072996 743.947378,190.132053 C744.1664,189.447964 744.297244,188.742258 744.297244,187.9936 C744.297244,183.674311 740.5824,180.145778 735.997156,180.145778 Z" id="路径" fill="#FFFFFF"></path>
        </g>
    </g>
</svg>

<svg xmlns="http://www.w3.org/2000/svg" width="1024" height="1024"><g fill="none" fill-rule="evenodd"><path fill="#224888" fill-rule="nonzero" d="M0 0h1024v1024H0z"/><path fill="#FFF" d="M735.997 180.146c-.788 0-1.53.128-2.25.32-.526.193-1.05.407-1.596.6-15.51 5.773-37.99 12.017-62.893 12.017H430.876c-15.246 0-28.66 7.27-36.633 18.326L279.705 434.85s59.29 6.756 60.906 6.992c52.801 7.956 115.453 23.051 158.927 48.756 62.479 36.95 101.516 90.644 97.562 148.296-7.666 111.732-114.819 162.005-199.08 174.085-59.156 8.041-98.435 0-98.435 0s48.28 28.593 117.857 30.686c118.798 3.593 211.183-46.017 260.05-117.737 77.162-113.164 34.037-293.282-168.231-346.911C470.463 368.73 416.589 359 416.589 359l28.817-55.512c6.4-15.696 22.477-26.815 41.33-26.815.876 0 1.749.043 2.622.085H671.181c16.734 0 31.283-8.789 38.818-21.747l.808-1.54 31.81-60.794a7.322 7.322 0 0 0 1.33-2.545 6.95 6.95 0 0 0 .35-2.138c0-4.32-3.715-7.848-8.3-7.848"/></g></svg>
